X:27
T:Polska från Östergötland
T:Svenska Folkdansar H2 nr 27
O:Östergötland
B:Traditioner av Svenska Folkdansar Häfte 2, nr 27
R:Polska
Z:Nils L
U:V=wedge
M:3/4
L:1/16
K:G
G2B2 d2g2 (fgab) | (g2>Va2) {a/}g2fe d2c2 | VBVcVd2 VBVcVd2 VBVcVd2 | (ed).c.B (B4 A4) |
(B2d2) (d2c2) (c2B2) | g2VfVe ^d4 B4 | b2Tf2 Vg2Ve2 Vf2V^d2 | (B2^c^d) e4>Tf4 |
Vg2Td2 (e2d2 c2B2) | Vc2Va2 VB2Vg2 VA2Vf2 | (d2ef) gefg a2c2 | BAGF (F4 G4) :|

